!!!OTL: 1868. Auszaehlreim und Plumpsackspiel.
!!!ODT: 1891
!!!ARE: Europa, Mitteleuropa, Deutschland, Schleswig
!!!SCT: E1868
!!!TXL: @@DE
!!!YEM: Copyright 1995, estate of Helmut Schaffrath.
**kern	**text
*ICvox	*
*M2/4	*
*k[]	*
*C:	*
!LO:TX:a:t=Aus Schleswig. 1891 durch Carſtenſen.	!
{8c	Wir
=1	=1
8g	rei-
8g	-ſen
8a	nach
8a	Je-
=2	=2
8g	-ru-
8g	-ſa-
8e}	-lem,
{8f	und
=3	=3
4g	wer
4a	will
=4	=4
4g	mit?
8r}	.
{8c	Dem
=5	=5
8g	geb
8g	ich
8g	ei-
8g	-nen
=6	=6
8cc	Schlag
8g	beim
8e}	Kopf
{8f	und
=7	=7
4g	der
4g	ſoll
=8	=8
4c	mit.
8r}	.
==	==
!!!AGN: Kinder - Lied, Abzaehl - Reim, Plumpsack - Spiel
!!!ONB: ESAC (Essen Associative Code) Database: ERK3
!!!AMT: simple duple
!!!AIN: vox
!!!EED: Helmut Schaffrath
!!!EEV: 1.0
!!!GTL: Einige Kinderlieder. d) Spiel- und Tanzliedchen.
!!!URL-scan: https://rosdok.uni-rostock.de/mcrviewer/recordIdentifier/rosdok_ppn745177999/iview2/phys_0605.iview2?x=123.38790553869558&y=149.1218253779225&scale=0.7014306698522895&rotation=0&layout=singlePageLayout
!!!ENC: Anna Maria Matuszewska
!!!EEV: 2025/09/01
*-	*-
